pro/src/icons/stroke-duplicate-offer.svg

<svg width="48" height="48" viewBox="0 0 48 48" xmlns="http://www.w3.org/2000/svg">
<g id="icon" fill="none">
<path d="M18.1713 12C16.0884 12 14.3999 13.7192 14.3999 15.84V41.76C14.3999 43.8808 16.0884 45.6 18.1713 45.6H37.0285C39.1114 45.6 40.7999 43.8808 40.7999 41.76V15.84C40.7999 13.7192 39.1114 12 37.0285 12H18.1713Z" stroke="currentColor" stroke-width="2"/>
<path d="M11.75 39.6H11.0541C8.9255 39.6 7.19995 37.69 7.19995 35.3339V9.06604C7.19995 6.70997 8.9255 4.79999 11.0541 4.79999H28.5458C30.6744 4.79999 32.4 6.70997 32.4 9.06604V9.76047" stroke="currentColor" stroke-width="2" stroke-dasharray="2 4"/>
</g>
</svg>

<svg xmlns="http://www.w3.org/2000/svg" width="48" height="48"><g id="icon" fill="none" stroke="currentColor" stroke-width="2"><path d="M18.171 12c-2.083 0-3.771 1.72-3.771 3.84v25.92c0 2.12 1.688 3.84 3.771 3.84H37.03c2.082 0 3.77-1.72 3.77-3.84V15.84c0-2.12-1.688-3.84-3.77-3.84z"/><path stroke-dasharray="2 4" d="M11.75 39.6h-.696c-2.129 0-3.854-1.91-3.854-4.266V9.066C7.2 6.71 8.925 4.8 11.054 4.8h17.492c2.128 0 3.854 1.91 3.854 4.266v.694"/></g></svg>
